icons/op-export-xls-with-relations-24.svg

<svg width="24" height="24" viewBox="0 0 24 24" fill="none" xmlns="http://www.w3.org/2000/svg">
<path d="M8.6802 17.5625L9.62437 16.0625L8.74112 14.6562H9.25888C9.28934 14.6562 9.3198 14.6562 9.3198 14.6875C9.33274 14.6875 9.34018 14.6875 9.3468 14.6899C9.35575 14.6931 9.3632 14.7008 9.38071 14.7188L10.0203 15.7812V15.7187C10.0508 15.7187 10.0508 15.6875 10.0508 15.6875L10.6599 14.7188C10.6904 14.6875 10.7208 14.6562 10.7513 14.6562H11.269L10.3553 16.0313L11.2995 17.5625H10.7513C10.7208 17.5625 10.6904 17.5313 10.6904 17.5313L10.6294 17.4688L9.95939 16.3438V16.4063L9.92893 16.4375L9.3198 17.4688C9.30097 17.4688 9.29378 17.4807 9.28385 17.4972C9.27771 17.5074 9.27052 17.5193 9.25888 17.5313C9.24365 17.5313 9.22843 17.5391 9.2132 17.5469C9.19797 17.5547 9.18274 17.5625 9.16751 17.5625H8.6802Z" fill="black"/>
<path d="M11.6041 17.5625V14.6562H12.1218V17.0938H13.2487V17.5625H11.6041Z" fill="black"/>
<path d="M13.401 17.1875L13.5533 16.9375C13.5533 16.9375 13.5838 16.9063 13.6142 16.9063C13.6142 16.875 13.6447 16.875 13.6751 16.875C13.7056 16.875 13.736 16.875 13.7665 16.9063C13.797 16.9375 13.8579 16.9688 13.9188 17C13.9492 17.0313 14.0102 17.0625 14.1015 17.0938C14.1624 17.125 14.2538 17.125 14.3452 17.125C14.4975 17.125 14.5888 17.0938 14.6802 17.0313C14.7716 16.9688 14.802 16.8438 14.802 16.7188C14.802 16.6563 14.802 16.5938 14.7411 16.5313C14.7199 16.4877 14.6838 16.4593 14.6536 16.4355C14.6405 16.4252 14.6285 16.4157 14.6193 16.4063C14.5279 16.375 14.467 16.3438 14.4061 16.3125C14.3147 16.3125 14.2234 16.2813 14.1624 16.25C14.1168 16.2344 14.0787 16.2188 14.0406 16.2031C14.0025 16.1875 13.9645 16.1719 13.9188 16.1563C13.8274 16.125 13.7665 16.0625 13.7056 16C13.661 15.9543 13.6327 15.9085 13.5969 15.8505C13.5838 15.8293 13.5696 15.8064 13.5533 15.7812C13.5228 15.6875 13.4924 15.5938 13.4924 15.4688C13.4924 15.3438 13.5228 15.25 13.5533 15.1562C13.5939 15.0729 13.6345 15.0174 13.6751 14.9618C13.6954 14.934 13.7157 14.9062 13.736 14.875C13.8274 14.8125 13.9188 14.75 14.0406 14.6875C14.1624 14.6562 14.2843 14.625 14.4365 14.625C14.5888 14.625 14.7411 14.6562 14.8934 14.7188C15.0457 14.75 15.1675 14.8438 15.2589 14.9375L15.1371 15.1875L15.0761 15.25H15.0152C14.9848 15.25 14.9543 15.25 14.9239 15.2188C14.8934 15.2188 14.8325 15.1875 14.802 15.1562C14.7849 15.1387 14.7582 15.131 14.7273 15.1221C14.7032 15.1151 14.6765 15.1075 14.6497 15.0938C14.5888 15.0625 14.5279 15.0625 14.4365 15.0625C14.3756 15.0625 14.3147 15.0625 14.2538 15.0938C14.2234 15.1094 14.2005 15.1172 14.1777 15.125C14.1548 15.1328 14.132 15.1406 14.1015 15.1562C14.0711 15.1875 14.0406 15.25 14.0406 15.2812C14.0102 15.3125 14.0102 15.375 14.0102 15.4375C14.0102 15.5 14.0102 15.5625 14.0711 15.5938C14.1015 15.6562 14.132 15.6875 14.1929 15.7187C14.2233 15.7344 14.2614 15.75 14.2995 15.7656C14.3376 15.7812 14.3756 15.7969 14.4061 15.8125C14.4784 15.8125 14.5316 15.8321 14.596 15.8557C14.6129 15.862 14.6307 15.8685 14.6497 15.875C14.6954 15.8906 14.7335 15.9063 14.7716 15.9219C14.8096 15.9375 14.8477 15.9531 14.8934 15.9688C14.9239 16 14.9619 16.0234 15 16.0469C15.0381 16.0703 15.0761 16.0938 15.1066 16.125C15.1512 16.1708 15.1795 16.2165 15.2153 16.2745C15.2284 16.2957 15.2426 16.3186 15.2589 16.3438C15.2893 16.4063 15.3198 16.5313 15.3198 16.6563C15.3198 16.7813 15.2893 16.9063 15.2284 17C15.198 17.125 15.1371 17.2188 15.0457 17.3125C14.9543 17.4063 14.8629 17.4688 14.7411 17.5C14.6193 17.5625 14.467 17.5938 14.3147 17.5938C14.2644 17.5938 14.2141 17.5843 14.1689 17.5758C14.132 17.5688 14.0984 17.5625 14.0711 17.5625L13.797 17.4688C13.7826 17.4614 13.7665 17.454 13.7495 17.4462C13.6946 17.421 13.6303 17.3915 13.5838 17.3438C13.5228 17.3125 13.4619 17.25 13.401 17.1875Z" fill="black"/>
<path d="M12.802 8.41256H8.90355V11.6667H12.802V8.41256Z" fill="black"/>
<path d="M15.5573 9.99381C15.07 10.3438 14.47 10.9407 14.0954 11.5751V10.2688H13.3401L13.3431 9.61256L14.0954 9.6056V8.41256C14.47 9.04381 15.07 9.64381 15.5573 9.99381Z" fill="black"/>
<path fill-rule="evenodd" clip-rule="evenodd" d="M17.9695 7.6875L14.3756 4H6V20H18V7.6875H17.9695ZM7.40102 18.5625V5.4375H13.797L16.599 8.3125V18.5625H7.40102Z" fill="black"/>
</svg>

<svg xmlns="http://www.w3.org/2000/svg" width="24" height="24" viewBox="0 0 24 24"><path d="m8.68 17.562.944-1.5-.883-1.406h.518c.03 0 .061 0 .061.032.013 0 .02 0 .027.002.009.003.016.011.034.029l.639 1.062v-.062c.031 0 .031-.031.031-.031l.609-.969c.03-.031.061-.063.091-.063h.518l-.914 1.375.945 1.531h-.549c-.03 0-.061-.031-.061-.031l-.061-.062-.67-1.125v.062l-.03.032-.609 1.031c-.019 0-.026.012-.036.028-.006.01-.013.022-.025.034a.106.106 0 0 0-.046.016.1.1 0 0 1-.045.015H8.68Zm2.924 0v-2.906h.518v2.438h1.127v.468h-1.645Zm1.797-.374.152-.25s.031-.032.061-.032c0-.031.031-.031.061-.031.031 0 .061 0 .092.031.03.032.091.063.152.094a.5.5 0 0 0 .182.094.587.587 0 0 0 .244.031.532.532 0 0 0 .335-.094c.092-.062.122-.187.122-.312 0-.063 0-.125-.061-.188a.278.278 0 0 0-.087-.095.383.383 0 0 1-.035-.03 1.379 1.379 0 0 1-.213-.094.57.57 0 0 1-.244-.062 2.213 2.213 0 0 1-.121-.047c-.039-.015-.077-.031-.122-.047-.092-.031-.152-.094-.213-.156a.794.794 0 0 1-.109-.149 1.271 1.271 0 0 0-.044-.07c-.03-.093-.061-.187-.061-.312s.031-.219.061-.313a1.17 1.17 0 0 1 .122-.194c.02-.028.041-.056.061-.087.091-.063.183-.125.305-.187.121-.032.243-.063.396-.063.152 0 .304.031.456.094a.721.721 0 0 1 .366.219l-.122.25-.061.062h-.061c-.03 0-.061 0-.091-.031a.222.222 0 0 1-.122-.063.174.174 0 0 0-.075-.034.485.485 0 0 1-.077-.028c-.061-.032-.122-.032-.213-.032-.061 0-.122 0-.183.032-.031.015-.054.023-.076.031a.65.65 0 0 0-.077.031.244.244 0 0 0-.06.125c-.031.031-.031.094-.031.157 0 .062 0 .124.061.156a.24.24 0 0 0 .122.125c.03.015.068.031.107.047.038.015.076.031.106.046.072 0 .126.02.19.044l.054.019c.045.016.083.031.122.047.038.016.076.031.121.047.031.031.069.054.107.078a.554.554 0 0 1 .107.078.79.79 0 0 1 .108.149l.044.07c.03.062.061.187.061.312s-.031.25-.092.344a.645.645 0 0 1-.182.312.63.63 0 0 1-.305.188.959.959 0 0 1-.426.094c-.051 0-.101-.01-.146-.018-.037-.007-.071-.014-.098-.014l-.274-.093c-.014-.008-.03-.015-.048-.023-.054-.025-.119-.054-.165-.102-.061-.032-.122-.094-.183-.156Zm-.599-8.775H8.904v3.254h3.898V8.413Zm2.755 1.581c-.487.35-1.087.947-1.462 1.581v-1.306h-.755l.003-.656.752-.007V8.413c.375.631.975 1.231 1.462 1.581Z"/><path d="M17.969 7.688H18V20H6V4h8.376ZM7.401 18.562h9.198V8.312l-2.802-2.874H7.401Z"/></svg>
